X: 1
T: Moonshiner, The
M: 6/8
L: 1/8
R: jig
K: Emin
A|:B2E cBA|BEE EFG|FDF ABA|FDF cBA|
B2E cBA|BEE EFG|FDF AGF|1GEE EFG:|2GEE EGB||
|:efe BcB|GBG E3|FDF ABA|FDF cBA|
efe BcB|GBG E3|FDF AGF|1GEE EGB:|2GEE E2F||
|:G2B BAG|F2A AGF|GEG BGB|Bee ed^c|
dBG dBG|F2A AGF|GEB AGF|1GEE E2F:|2GEE E2||
